www/assets/icons/flight_land.svg

<svg xmlns="http://www.w3.org/2000/svg" width="24" height="24" viewBox="0 0 24 24" fill='currentColor'><path d="M2.5 19.5h19v2h-19zm16.84-3.15c.8.21 1.62-.26 1.84-1.06.21-.8-.26-1.62-1.06-1.84l-5.31-1.42-2.76-9.02-1.93-.51v8.28L5.15 9.45l-.93-2.32-1.45-.39v5.17z"/></svg>

<svg width="24" height="24" viewBox="0 0 24 24" xmlns="http://www.w3.org/2000/svg" fill='currentColor'><path d="M2.5 19.5H21.5V21.5H2.5V19.5ZM19.34 16.35C20.14 16.56 20.96 16.09 21.18 15.29C21.39 14.49 20.92 13.67 20.12 13.45L14.81 12.03L12.05 3.01L10.12 2.5V10.78L5.15 9.45L4.22 7.13L2.77 6.74V11.91L19.34 16.35Z"/></svg>
